icons-common/chevron-up.svg

<svg height="1em" width="auto" viewBox="0 0 106 106" fill="currentColor" xmlns="http://www.w3.org/2000/svg">
    <path d="M57.4149 36.2396C69.7776 41.6985 77.8238 55.0217 83.683 67.9716C84.4666 69.7029 82.1171 71.1404 80.8469 69.7076C74.1368 62.1334 66.6053 53.3951 58.4002 47.3702C55.3697 45.1455 51.1901 45.1455 48.1596 47.3702C39.952 53.3963 32.4193 62.137 25.708 69.7136C24.4391 71.1464 22.0895 69.7088 22.8719 67.9776C28.7299 55.0289 36.7871 41.6961 49.1449 36.2396C51.7683 35.0815 54.7915 35.0815 57.4149 36.2396Z" />
</svg>

<svg xmlns="http://www.w3.org/2000/svg" width="auto" height="1em" fill="currentColor" viewBox="0 0 106 106">
    <path d="M57.415 36.24c12.363 5.459 20.409 18.782 26.268 31.732.784 1.73-1.566 3.168-2.836 1.736-6.71-7.575-14.242-16.313-22.447-22.338a8.69 8.69 0 0 0-10.24 0c-8.208 6.026-15.74 14.767-22.452 22.344-1.269 1.432-3.618-.005-2.836-1.736 5.858-12.95 13.915-26.282 26.273-31.738a10.28 10.28 0 0 1 8.27 0"/>
</svg>
